X:1
T:Vespers (Elliott), LM
T:Vespers (Elliott), LM
T:James William Elliott, 1874
T:Public Domain Courtesy of the Cyber Hymnal™
C:James William Elliott, 1874
Z:Public Domain
Z:Courtesy of the Cyber Hymnal™
%%score ( 1 2 ) ( 3 4 )
L:1/8
M:3/4
K:Eb
V:1 treble 
V:2 treble 
V:3 bass 
V:4 bass 
V:1
 [EG]2 [EG]2 [EG]2 | [EG]2 [DF]2 E2 | [EA]4 [EA]2 | [EG]4 [EB]2 | B2 F2 [EG]2 | E4 [EG]2 | %6
 [EB]2 [CF]2 [DG]2 | E4 [DF]2 | [EG]4 [EG]2 | z2 =A2 [GB]2 | d3 c B=A | G4 [DB]2 | B2 F2 [EG]2 | %13
 B2 F2 [EG]2 | [Cc-]2 cB AF | E6 |] %16
V:2
 x6 | x6 | x6 | x6 | D4 x2 | x6 | x6 | x6 | x6 | G4 x2 | ^F4 F2 | x6 | D4 x2 | D4 x2 | x2 D4 | %15
 E6 |] %16
V:3
 [E,B,]2 [E,B,]2 [E,B,]2 | B,2 A,2 [E,G,]2 | [E,C]4 [E,C]2 | [E,B,]4 [E,G,]2 | [E,A,]4 [E,B,]2 | %5
 G,4 [C,E,]2 | G,2 A,2 [C,B,]2 | [E,G,]4 [B,,B,]2 | [E,B,]4 [E,B,]2 | B,2 C2 [D,D]2 | [D,=A,]4 DC | %11
 [G,B,]4 [G,,G,]2 | [B,,A,]4 [B,,G,]2 | [B,,A,]4 [E,G,]2 | [B,,A,-]2 A,G, F,A, | [E,G,]6 |] %16
V:4
 x6 | E,4 x2 | x6 | x6 | x6 | E,2 D,2 x2 | B,,4 x2 | x6 | x6 | D,4 x2 | x4 D,2 | x6 | x6 | x6 | %14
 x2 B,,4 | x6 |] %16

